app/assets/images/payment_icons/chinabank.svg

<svg width="38" height="24" viewBox="0 0 38 24" fill="none" xmlns="http://www.w3.org/2000/svg" aria-labelledby="pi-chinabank">
<title id="pi-chinabank">Chinabank</title>
<g clip-path="url(#clip0_1_2)">
<path opacity="0.07" d="M35 0H3C1.3 0 0 1.3 0 3V21C0 22.7 1.4 24 3 24H35C36.7 24 38 22.7 38 21V3C38 1.3 36.6 0 35 0Z" fill="black"/>
<path d="M35 1C36.1 1 37 1.9 37 3V21C37 22.1 36.1 23 35 23H3C1.9 23 1 22.1 1 21V3C1 1.9 1.9 1 3 1H35Z" fill="white"/>
<g clip-path="url(#clip1_1_2)">
<path d="M11.1921 13.995C10.7926 13.966 10.4553 13.8472 10.2072 13.6483C9.95145 13.443 9.80591 13.1993 9.75674 12.8937C9.74555 12.824 9.74133 12.6338 9.74912 12.5518C9.78222 12.2052 9.92784 11.8991 10.1936 11.6177C10.3454 11.4569 10.4876 11.3487 10.6748 11.2513C10.939 11.1139 11.2181 11.0399 11.5768 11.0121C11.6759 11.0045 11.9373 11.0045 12.0337 11.0121C12.3458 11.0369 12.5924 11.105 12.8197 11.2293C13.1713 11.4216 13.3732 11.7154 13.3934 12.064C13.3951 12.0946 13.3956 12.1196 13.3946 12.1196L12.8299 12.1489C12.395 12.1716 12.2663 12.1767 12.2634 12.1717C12.2613 12.1681 12.2594 12.1504 12.2594 12.1322C12.2593 12.0559 12.2325 11.9383 12.1998 11.8697C12.1435 11.7517 12.057 11.6899 11.9095 11.6621C11.8515 11.6512 11.6947 11.6526 11.6389 11.6644C11.4643 11.7016 11.3416 11.7879 11.2478 11.9395C11.1965 12.0223 11.1648 12.1011 11.1069 12.2889C11.026 12.5518 10.9938 12.7301 10.9982 12.8909C11.0022 13.0336 11.0286 13.1099 11.1007 13.1871C11.1343 13.2231 11.1499 13.2352 11.1896 13.2559C11.2774 13.3014 11.3915 13.3224 11.5192 13.3163C11.6447 13.3103 11.7505 13.2812 11.8325 13.2302C11.8926 13.1927 11.981 13.0996 12.0283 13.0239C12.057 12.9782 12.1156 12.8644 12.1233 12.8399C12.1249 12.8349 12.2103 12.8411 12.4852 12.8663C13.019 12.9151 13.1998 12.9323 13.2017 12.9342C13.2028 12.9352 13.1878 12.9693 13.1686 13.0102C13.0892 13.1783 12.993 13.3164 12.8612 13.4513C12.7191 13.5966 12.5355 13.7276 12.3558 13.8119C12.1377 13.9141 11.8814 13.9757 11.5928 13.9955C11.4999 14.0017 11.2819 14.0016 11.1921 13.995ZM13.4115 13.8781C13.4115 13.8763 13.425 13.8134 13.4416 13.7384C13.4928 13.5073 13.7558 12.3231 13.8276 12.0007C13.8649 11.8329 13.8954 11.6948 13.8954 11.6938C13.8954 11.6927 14.0851 11.6919 14.3169 11.6919C14.7166 11.6919 14.7383 11.6922 14.7366 11.6985C14.7355 11.7021 14.6959 11.8805 14.6484 12.0947C14.6193 12.2269 14.5899 12.359 14.5601 12.491C14.5584 12.4974 14.5774 12.4976 14.9392 12.4967L15.3201 12.4957L15.4018 12.1289L15.4913 11.7269L15.499 11.6917H16.3408L16.3389 11.7003L15.9239 13.5704L15.8549 13.8811H15.4345C15.2032 13.8811 15.014 13.8797 15.014 13.878C15.014 13.8748 15.0241 13.8295 15.1434 13.2945C15.1787 13.136 15.2076 13.0047 15.2076 13.0028C15.2076 13.0007 15.056 12.9993 14.8275 12.9993C14.6185 12.9993 14.4475 13.0003 14.4475 13.0015C14.4475 13.0026 14.4371 13.0501 14.4243 13.107C14.3917 13.2519 14.2893 13.7117 14.269 13.8041L14.252 13.8811H13.8316C13.6006 13.8812 13.4115 13.88 13.4115 13.8781ZM16.3646 13.8766C16.3655 13.874 16.4736 13.3877 16.6049 12.7962C16.6854 12.4328 16.7661 12.0695 16.8471 11.7062L16.8506 11.692H17.263C17.6541 11.692 17.6754 11.6923 17.6736 11.6986C17.6725 11.7022 17.6265 11.9088 17.5713 12.1575C17.4823 12.5589 17.251 13.6005 17.2058 13.8034L17.1888 13.8794L16.7759 13.8805C16.4461 13.8812 16.3633 13.8805 16.3646 13.8766ZM17.6965 13.8793C17.6965 13.8775 17.8369 13.2448 18.0962 12.0778C18.1247 11.9502 18.1529 11.8226 18.1806 11.6948C18.1806 11.6932 18.3575 11.6923 18.5737 11.6928L18.9667 11.6938L19.1718 12.0191C19.4898 12.5237 19.5847 12.6864 19.6799 12.8912L19.7188 12.9747L19.7166 12.912C19.7126 12.7999 19.7229 12.741 19.8351 12.2392C19.8639 12.1107 19.9031 11.9349 19.9223 11.8487L19.9572 11.6919H20.304C20.5798 11.6919 20.6504 11.6928 20.6492 11.6966C20.5688 12.0567 20.4887 12.4168 20.4089 12.7771C20.3284 13.1405 20.2477 13.5038 20.1667 13.8671L20.1631 13.8813L19.8415 13.8811L19.5198 13.8809L19.4729 13.8099C19.4128 13.7189 19.3526 13.628 19.2921 13.5374C18.9724 13.0562 18.9272 12.9877 18.8846 12.9193C18.7952 12.7757 18.7191 12.6285 18.6867 12.536L18.6727 12.4964V12.5626C18.6727 12.667 18.6708 12.6781 18.5799 13.0869C18.4457 13.6907 18.4062 13.8682 18.4043 13.8747C18.4026 13.8809 18.3825 13.8813 18.0495 13.8813C17.8554 13.8813 17.6965 13.8805 17.6965 13.8793ZM20.4618 13.8798C20.4618 13.8782 20.5729 13.6962 20.6429 13.583L20.7468 13.4138L20.873 13.2085C20.9046 13.1573 20.9728 13.0461 21.0248 12.9615C21.0769 12.8768 21.1453 12.7654 21.1769 12.7139L21.5195 12.1562L21.8046 11.6921L22.2604 11.6921L22.7163 11.692L22.7182 11.7006L22.7597 11.8992C22.7976 12.0817 23.1254 13.6624 23.1545 13.8036C23.1625 13.8412 23.1688 13.8741 23.1688 13.8769C23.1688 13.8805 23.0767 13.8814 22.7413 13.8814H22.3137L22.2766 13.6753C22.2632 13.6006 22.2496 13.5258 22.2359 13.4511L22.2324 13.433H21.4488L21.313 13.6572L21.1771 13.8814H20.8195C20.6228 13.8812 20.4618 13.8806 20.4618 13.8798ZM22.0872 12.9817C22.1664 12.9796 22.1793 12.9784 22.1793 12.9734C22.1793 12.9663 22.0646 12.3481 22.0628 12.3464C22.0622 12.3457 21.9754 12.4876 21.8698 12.6618L21.6779 12.9785L21.7968 12.9805C21.8623 12.9817 21.9337 12.9828 21.9555 12.9833C21.9994 12.9836 22.0433 12.9831 22.0872 12.9817ZM23.4331 13.8794C23.4331 13.8775 23.6128 13.0669 23.8096 12.1823C23.867 11.9241 23.9149 11.7081 23.916 11.7024L23.918 11.6919H24.5727C24.9486 11.6919 25.2612 11.6935 25.3064 11.6957C25.6217 11.7107 25.7929 11.7536 25.9321 11.8527C26.0418 11.9307 26.1118 12.0265 26.1389 12.1359C26.147 12.168 26.1481 12.1807 26.1482 12.2336C26.1482 12.2873 26.1471 12.2988 26.1388 12.3324C26.1251 12.3844 26.1027 12.4334 26.0728 12.4771C25.981 12.6059 25.8021 12.7072 25.5897 12.7506C25.5622 12.7561 25.5372 12.7616 25.5341 12.7626C25.5313 12.7636 25.5531 12.7718 25.5828 12.7809C25.833 12.8573 25.9733 12.9869 26.0037 13.1699C26.0096 13.2044 26.0087 13.2883 26.002 13.3283C25.9906 13.3972 25.9628 13.467 25.9204 13.5331C25.8933 13.5754 25.8142 13.6607 25.7694 13.6961C25.6263 13.8087 25.4169 13.8661 25.1057 13.8776C25.0103 13.8812 23.4331 13.883 23.4331 13.8794ZM24.951 13.3895C25.0579 13.3716 25.1262 13.3281 25.1595 13.2566C25.2063 13.1563 25.1448 13.047 25.0195 13.0075C24.9563 12.9876 24.949 12.9871 24.7034 12.9854C24.4837 12.9838 24.4734 12.984 24.4715 12.9907C24.4705 12.9945 24.4575 13.0523 24.4427 13.1192L24.3995 13.3131C24.3906 13.3528 24.3833 13.3884 24.3833 13.3923C24.3833 13.3988 24.3939 13.3991 24.6478 13.3976C24.8749 13.3962 24.9175 13.3951 24.951 13.3895ZM25.0072 12.524C25.197 12.508 25.2949 12.4517 25.308 12.351C25.3198 12.2605 25.2685 12.1966 25.1623 12.1694C25.1006 12.1536 25.0596 12.1514 24.8513 12.1526L24.658 12.1537L24.6175 12.3343C24.6032 12.3965 24.5897 12.4589 24.577 12.5215C24.5768 12.5278 24.5882 12.5281 24.7679 12.5281C24.873 12.5281 24.9807 12.5263 25.0072 12.524ZM26.0447 13.8798C26.0447 13.8776 26.1006 13.7862 26.7594 12.7144L26.9516 12.4017C27.0099 12.3068 27.0989 12.1618 27.1811 12.0283C27.2198 11.9656 27.2819 11.8642 27.3193 11.8032L27.3875 11.6921L27.8432 11.692L28.2991 11.6919L28.3012 11.7008C28.3032 11.7099 28.34 11.8863 28.4131 12.2392L28.5132 12.722C28.6904 13.5752 28.7515 13.8716 28.7515 13.8763C28.7515 13.8805 28.6799 13.8813 28.324 13.8813H27.8964L27.859 13.6733C27.8456 13.5985 27.832 13.5238 27.8183 13.449L27.8152 13.4329H27.0313L26.9779 13.5213L26.8421 13.7455L26.7598 13.8813H26.4022C26.2056 13.8812 26.0447 13.8806 26.0447 13.8798ZM27.7281 12.981L27.764 12.9786L27.7062 12.667C27.6868 12.5611 27.667 12.4554 27.6468 12.3498C27.6458 12.3467 27.5614 12.4823 27.4528 12.6615L27.2606 12.9786L27.4082 12.9806C27.6307 12.9836 27.6887 12.9836 27.7281 12.981ZM29.0291 13.8196C29.1564 13.2437 29.4943 11.7234 29.4986 11.7061L29.5022 11.6918L29.8937 11.6919L30.2852 11.692L30.501 12.035C30.7594 12.4457 30.8256 12.5559 30.919 12.7295C30.9518 12.7906 31.0216 12.9346 31.0327 12.9643C31.0353 12.9712 31.0379 12.9763 31.0386 12.9754C31.0394 12.9747 31.0383 12.9524 31.0362 12.926C31.0307 12.8527 31.0399 12.7723 31.072 12.6138C31.0838 12.5564 31.2696 11.719 31.2752 11.6985C31.2769 11.6922 31.2966 11.6919 31.6228 11.6919C31.813 11.6919 31.9686 11.6927 31.9686 11.6939C31.9686 11.6949 31.8668 12.1537 31.7425 12.7135L31.4998 13.8062L31.4833 13.8813H30.8404L30.6878 13.6523C30.2489 12.9931 30.2096 12.933 30.1465 12.8246C30.0866 12.7215 30.0315 12.6076 30.0057 12.5338C29.9982 12.5129 29.9919 12.4954 29.9914 12.4948C29.9909 12.4942 29.9912 12.519 29.9922 12.5499C29.9939 12.6096 29.9887 12.6657 29.9747 12.7409C29.9706 12.763 29.9156 13.0126 29.8526 13.296L29.7304 13.8461L29.7228 13.8812H29.0152L29.0291 13.8196ZM31.9952 13.8796C31.9952 13.8779 32.1325 13.2589 32.3868 12.1148L32.4807 11.6919H32.8849C33.2068 11.6919 33.2889 11.6928 33.2877 11.6966C33.2131 12.028 33.1396 12.3596 33.0671 12.6915C33.0671 12.6944 33.0769 12.6815 33.089 12.6628C33.1427 12.5794 33.1959 12.5221 33.3343 12.399C33.3896 12.3499 33.5008 12.2498 33.5816 12.1765C33.6983 12.0718 33.8162 11.9688 33.9354 11.8675L34.1424 11.6919L34.5558 11.6928L34.9692 11.6938L34.5659 12.0355C34.1551 12.3834 34.0034 12.512 33.9982 12.5168C33.9954 12.5194 34.0157 12.57 34.1876 12.9899C34.4085 13.5293 34.5438 13.8605 34.5482 13.8728L34.5513 13.8814H33.6958L33.6739 13.8216C33.646 13.7453 33.4978 13.3381 33.4235 13.1337C33.3921 13.0473 33.3657 12.9769 33.3647 12.9769C33.3637 12.9769 33.3218 13.0113 33.2715 13.0534C33.2213 13.0954 33.1237 13.1769 33.0546 13.2344C32.9855 13.292 32.9269 13.3411 32.9244 13.3437C32.9217 13.3463 32.9141 13.373 32.9074 13.4029C32.901 13.4331 32.8759 13.5466 32.8521 13.6553C32.8367 13.726 32.821 13.7966 32.8051 13.8672L32.8016 13.8815H32.3983C32.1767 13.8813 31.9952 13.8806 31.9952 13.8796ZM3.7439 13.2351L3.98087 12.4881L4.21639 11.7452H4.8564C5.23632 11.7452 5.52181 11.747 5.55896 11.7496C5.71221 11.7603 5.82693 11.785 5.88177 11.819C5.94829 11.8601 5.97742 11.9319 5.96582 12.0264C5.94489 12.1964 5.86303 12.3211 5.72422 12.3947C5.68301 12.4166 5.60586 12.4421 5.5485 12.453C5.51986 12.4584 5.49487 12.4642 5.49301 12.4658C5.49122 12.4674 5.51069 12.4722 5.53633 12.4764C5.63855 12.493 5.70126 12.5206 5.74694 12.5691C5.78953 12.6142 5.79651 12.6348 5.79634 12.7132C5.79626 12.77 5.79553 12.7751 5.78077 12.8218C5.7514 12.9148 5.70978 12.9889 5.65283 13.0493C5.53933 13.1696 5.36799 13.2226 5.05232 13.2349C4.91076 13.2404 3.74203 13.2406 3.7439 13.2351ZM4.96065 12.996C5.18269 12.9877 5.2463 12.9651 5.30284 12.8735C5.3374 12.8174 5.36499 12.7226 5.35931 12.6789C5.35306 12.6302 5.32637 12.6082 5.25879 12.5962C5.18497 12.583 5.10546 12.5805 4.7515 12.5805H4.3943L4.32931 12.7871C4.29354 12.9008 4.26433 12.9953 4.26433 12.9971C4.26433 13.0019 4.82833 13.001 4.96065 12.996ZM5.21296 12.3642C5.31315 12.3529 5.37091 12.3338 5.40628 12.2998C5.44052 12.267 5.4806 12.1888 5.48968 12.1366C5.50031 12.0763 5.46924 12.0287 5.40442 12.0058C5.34033 11.9832 5.33384 11.9828 4.94767 11.9807C4.60117 11.9788 4.58641 11.979 4.58341 11.9867C4.57505 12.0083 4.46455 12.3623 4.46455 12.3676C4.46455 12.3726 4.52126 12.3732 4.81584 12.3714C5.03999 12.3701 5.18367 12.3675 5.21296 12.3642Z" fill="#FE041F"/>
<path d="M3.231 13.9324C3.16553 13.9048 3.09268 13.8322 3.05674 13.7587C3.00823 13.66 3.02445 13.5221 3.13089 13.1248C3.18736 12.914 3.3114 12.4513 3.40664 12.0965C3.50189 11.7417 3.60314 11.4056 3.63169 11.3494C3.69027 11.2344 3.84644 11.0958 3.98273 11.0381C4.06686 11.0025 4.2163 11 6.30363 11C8.52003 11 8.5352 11.0003 8.61462 11.0446C8.80738 11.1517 8.82921 11.2998 8.71514 11.729L8.63742 12.0214H8.41651C8.23268 12.0214 8.19747 12.0162 8.2068 11.9906C8.27381 11.8056 8.2678 11.6907 8.18708 11.6103L8.13581 11.5592L6.21585 11.5527C4.84512 11.5481 4.27349 11.5531 4.21776 11.5702C4.11335 11.6024 3.97056 11.7455 3.93235 11.8564C3.91531 11.9057 3.81804 12.2267 3.71615 12.5696C3.53564 13.1773 3.53166 13.1953 3.55843 13.2792C3.61311 13.4507 3.48234 13.4404 5.62418 13.4403L7.52054 13.4401L7.62211 13.3899C7.73252 13.3354 7.84716 13.2129 7.8672 13.1283C7.87969 13.0754 7.8818 13.0749 8.1109 13.0749C8.25929 13.0749 8.34196 13.0831 8.34196 13.0976C8.34196 13.1611 8.23138 13.5273 8.18871 13.605C8.12023 13.7298 7.97234 13.8613 7.84221 13.9128C7.73374 13.9558 7.6961 13.9565 5.50679 13.9551C4.07887 13.9543 3.26354 13.9462 3.231 13.9324Z" fill="#FE041F"/>
<path d="M6.53817 13.2476C6.19663 13.2389 5.97937 13.1958 5.90011 13.1209C5.83228 13.0567 5.82815 12.8909 5.88818 12.6335C5.90741 12.5508 5.94959 12.4005 5.97556 12.3222C6.05384 12.0858 6.16661 11.9362 6.32724 11.8552C6.44358 11.7965 6.63512 11.7594 6.92385 11.7397C7.03833 11.732 7.47739 11.7319 7.56176 11.7396C7.83118 11.7645 7.93892 11.8059 7.98273 11.9012C8.01421 11.9696 8.01267 12.0483 7.97762 12.1781L7.96148 12.2378L7.73927 12.2389C7.5289 12.2401 7.51722 12.2397 7.51917 12.2323C7.5203 12.228 7.52631 12.2066 7.53255 12.1847C7.54789 12.1306 7.54894 12.0827 7.53531 12.0532C7.52371 12.0281 7.51219 12.0178 7.48258 12.0061C7.42409 11.9829 7.31481 11.9734 7.10939 11.9736C6.83973 11.9739 6.68412 11.9921 6.60932 12.0321C6.53063 12.0742 6.45907 12.2095 6.38038 12.4655C6.32173 12.656 6.29625 12.7746 6.29601 12.8582C6.29593 12.8869 6.29787 12.9074 6.30185 12.9174C6.31889 12.9606 6.39434 12.9868 6.54231 13.001C6.6223 13.0085 6.92751 13.0086 7.00928 13.001C7.1807 12.985 7.23774 12.9659 7.29526 12.9054C7.33631 12.8622 7.36089 12.8129 7.38271 12.7295L7.38936 12.7042H7.83459L7.81983 12.7494C7.77553 12.8854 7.72466 12.9795 7.65546 13.0539C7.58253 13.1321 7.50205 13.1735 7.36997 13.2007C7.18362 13.2393 6.88183 13.2562 6.53817 13.2476Z" fill="#FE041F"/>
</g>
</g>
<defs>
<clipPath id="clip0_1_2">
<rect width="38" height="24" fill="white"/>
</clipPath>
<clipPath id="clip1_1_2">
<rect width="32" height="3" fill="white" transform="translate(3 11)"/>
</clipPath>
</defs>
</svg>

<svg xmlns="http://www.w3.org/2000/svg" width="38" height="24" fill="none" aria-labelledby="pi-chinabank" viewBox="0 0 38 24"><title id="pi-chinabank">Chinabank</title><g clip-path="url(#clip0_1_2)"><path fill="#000" d="M35 0H3C1.3 0 0 1.3 0 3v18c0 1.7 1.4 3 3 3h32c1.7 0 3-1.3 3-3V3c0-1.7-1.4-3-3-3Z" opacity=".07"/><path fill="#fff" d="M35 1c1.1 0 2 .9 2 2v18c0 1.1-.9 2-2 2H3c-1.1 0-2-.9-2-2V3c0-1.1.9-2 2-2h32Z"/><g fill="#FE041F" clip-path="url(#clip1_1_2)"><path d="M11.192 13.995c-.4-.029-.737-.148-.985-.347a1.168 1.168 0 0 1-.45-.754 2.027 2.027 0 0 1-.008-.342c.033-.347.179-.653.445-.934a1.71 1.71 0 0 1 .48-.367c.265-.137.544-.211.903-.239.099-.008.36-.008.457 0 .312.025.558.093.786.217.351.193.553.486.573.835a.42.42 0 0 1 .002.056l-.565.029c-.435.023-.564.028-.567.023a.138.138 0 0 1-.004-.04.727.727 0 0 0-.06-.262c-.056-.118-.142-.18-.29-.208a1.079 1.079 0 0 0-.27.002.57.57 0 0 0-.391.276 1.378 1.378 0 0 0-.141.349c-.081.263-.113.441-.109.602.004.143.03.219.103.296.033.036.049.048.089.069a.654.654 0 0 0 .33.06.648.648 0 0 0 .313-.086.763.763 0 0 0 .195-.206c.029-.046.088-.16.095-.184.002-.005.087.001.362.026.534.05.715.066.717.068a1.566 1.566 0 0 1-.34.517 1.81 1.81 0 0 1-.506.36 2.139 2.139 0 0 1-.763.184c-.093.007-.311.007-.4 0Zm2.22-.117.03-.14a3383.384 3383.384 0 0 1 .453-2.044c0-.001.19-.002.422-.002.4 0 .421 0 .42.006a98.054 98.054 0 0 0-.177.793c-.002.006.017.007.38.006l.38-.001.082-.367.09-.402.007-.035h.842l-.002.008-.415 1.87-.07.311h-.42c-.23 0-.42-.001-.42-.003l.13-.584.064-.291a9.13 9.13 0 0 0-.38-.004c-.21 0-.38.001-.38.002a287.448 287.448 0 0 0-.178.803l-.018.077h-.42c-.231 0-.42-.001-.42-.003Zm2.953-.001a598.953 598.953 0 0 0 .482-2.17l.004-.015h.412c.391 0 .412 0 .41.007l-.102.459-.365 1.645-.017.076-.413.002c-.33 0-.413 0-.411-.004Zm1.332.002a1145.152 1145.152 0 0 1 .484-2.184c0-.002.177-.003.393-.002h.393l.205.326c.318.505.413.667.508.872l.039.084-.002-.063c-.004-.112.006-.171.118-.673l.087-.39.035-.157h.347c.276 0 .346 0 .345.005a649.185 649.185 0 0 0-.482 2.17l-.004.014h-.643l-.047-.071-.18-.273c-.32-.48-.366-.55-.408-.618a2.25 2.25 0 0 1-.198-.383l-.014-.04v.067c0 .104-.002.115-.093.524l-.176.788c-.001.006-.021.006-.355.006-.194 0-.352 0-.352-.002Zm2.765 0s.11-.183.18-.296l.105-.17.126-.204.152-.248.152-.247.343-.558.285-.464h.911l.002.009.042.198a5406.2 5406.2 0 0 1 .409 1.978c0 .003-.092.004-.428.004h-.427l-.037-.206-.041-.224-.004-.018h-.783l-.136.224-.136.224h-.357l-.358-.001Zm1.625-.897c.08-.002.092-.004.092-.009 0-.007-.114-.625-.116-.627 0 0-.088.142-.193.316l-.192.316.119.002.159.003.131-.001Zm1.346.897a898.191 898.191 0 0 1 .483-2.177l.002-.01h.655c.376 0 .688.002.733.004.316.015.487.058.626.157.11.078.18.174.207.283.008.032.01.045.01.098a.318.318 0 0 1-.01.098.467.467 0 0 1-.066.145c-.092.129-.27.23-.483.274a1.286 1.286 0 0 0-.056.012.182.182 0 0 0 .049.018c.25.076.39.206.42.389a.669.669 0 0 1-.001.158.548.548 0 0 1-.082.205.934.934 0 0 1-.15.163c-.144.113-.353.17-.664.182-.096.003-1.673.005-1.673.001Zm1.518-.49c.107-.017.175-.06.209-.132.046-.1-.015-.21-.14-.25-.064-.02-.071-.02-.317-.022-.22-.001-.23-.001-.232.006l-.028.128-.044.194-.016.08c0 .006.01.006.265.005.227-.002.27-.003.303-.008Zm.056-.865c.19-.016.288-.072.301-.173.012-.09-.04-.154-.146-.182-.061-.015-.102-.018-.31-.016h-.194l-.04.181a7.418 7.418 0 0 0-.041.188c0 .006.011.006.19.006.106 0 .214-.002.24-.004Zm1.038 1.356c0-.002.056-.094.714-1.166l.193-.312.23-.374.137-.225.069-.11.455-.001h.456l.002.009.112.538.1.483c.177.853.238 1.15.238 1.154 0 .005-.071.005-.427.005h-.428l-.037-.208-.04-.224-.004-.016h-.784l-.053.088-.136.224-.082.136h-.358l-.357-.001Zm1.683-.899.036-.002-.058-.312c-.02-.106-.039-.212-.06-.317a7.342 7.342 0 0 0-.193.312l-.192.317.147.002c.223.003.28.003.32 0Zm1.301.839c.127-.576.465-2.097.47-2.114l.003-.014h.783l.216.343c.258.41.325.52.418.694a3.836 3.836 0 0 1 .12.246s0-.023-.003-.049a1.143 1.143 0 0 1 .036-.312l.203-.916c.002-.006.022-.006.348-.006.19 0 .346 0 .346.002l-.227 1.02-.242 1.092-.017.075h-.643l-.152-.229c-.44-.659-.478-.719-.541-.827a1.927 1.927 0 0 1-.156-.33l.001.055a.861.861 0 0 1-.017.19c-.004.023-.06.273-.122.556l-.123.55-.007.035h-.708l.014-.061Zm2.966.06.392-1.765.094-.423h.404c.322 0 .404 0 .403.005-.075.331-.148.663-.22.995a1.203 1.203 0 0 1 .267-.293l.247-.223c.116-.104.234-.207.353-.309l.207-.175h.414l.413.002-.403.341-.568.482c-.003.002.018.053.19.473.22.54.356.87.36.883l.003.008h-.855l-.022-.06a813.187 813.187 0 0 1-.31-.844l-.092.076a126.947 126.947 0 0 1-.348.29.306.306 0 0 0-.017.06l-.055.252-.047.212-.003.014h-.404l-.403-.001Zm-28.251-.645.237-.747.235-.743h.64c.38 0 .666.002.703.005.153.01.268.035.323.069.066.041.095.113.084.207a.455.455 0 0 1-.242.369.737.737 0 0 1-.176.058.408.408 0 0 0-.055.013c-.002.001.018.006.043.01.103.017.165.045.21.093.044.045.05.066.05.144 0 .057 0 .062-.015.109a.574.574 0 0 1-.128.227c-.114.12-.285.174-.6.186-.142.005-1.311.006-1.31 0Zm1.217-.239c.222-.008.285-.03.342-.123a.393.393 0 0 0 .056-.194c-.006-.049-.033-.07-.1-.083-.074-.013-.154-.015-.508-.015h-.357l-.065.206-.065.21c0 .005.564.004.697-.001Zm.252-.632c.1-.011.158-.03.193-.064a.364.364 0 0 0 .084-.163c.01-.06-.02-.108-.086-.131-.064-.023-.07-.023-.456-.025-.347-.002-.362-.002-.365.006-.008.021-.118.375-.118.38 0 .006.056.006.35.004.225 0 .369-.004.398-.007Z"/><path d="M3.231 13.932a.388.388 0 0 1-.174-.173c-.049-.099-.033-.237.074-.634l.276-1.028c.095-.355.196-.691.225-.748a.794.794 0 0 1 .35-.31c.085-.037.234-.039 2.322-.039 2.216 0 2.231 0 2.31.045.193.107.215.255.101.684l-.078.292h-.22c-.184 0-.22-.005-.21-.03.067-.185.06-.3-.02-.38l-.051-.052-1.92-.006c-1.37-.005-1.943 0-1.998.017a.55.55 0 0 0-.286.286c-.017.05-.114.37-.216.714-.18.607-.184.625-.158.71.055.17-.076.16 2.066.16h1.897l.101-.05c.11-.055.225-.177.245-.262.013-.053.015-.053.244-.053.148 0 .231.008.231.023 0 .063-.11.43-.153.507a.766.766 0 0 1-.347.308c-.108.043-.146.043-2.335.042-1.428 0-2.243-.009-2.276-.023Z"/><path d="M6.538 13.248c-.341-.01-.559-.052-.638-.127-.068-.064-.072-.23-.012-.488a4.54 4.54 0 0 1 .088-.31c.078-.237.19-.387.351-.468.117-.059.308-.096.597-.115.114-.008.553-.008.638 0 .27.024.377.066.42.161.032.069.03.147-.004.277l-.017.06H7.74c-.21.002-.222.002-.22-.006l.014-.047c.015-.054.016-.102.002-.132-.011-.025-.023-.035-.052-.047-.059-.023-.168-.033-.374-.032-.27 0-.425.018-.5.058-.078.042-.15.178-.229.434-.058.19-.084.309-.084.392 0 .029.002.05.006.06.017.043.092.069.24.083.08.008.386.008.467 0 .172-.016.229-.035.286-.096a.369.369 0 0 0 .088-.175l.006-.026h.446l-.015.045a.783.783 0 0 1-.165.305.486.486 0 0 1-.285.147 4.064 4.064 0 0 1-.832.047Z"/></g></g><defs><clipPath id="clip0_1_2"><path fill="#fff" d="M0 0h38v24H0z"/></clipPath><clipPath id="clip1_1_2"><path fill="#fff" d="M3 11h32v3H3z"/></clipPath></defs></svg>
